X: 2121
T: MISS BETSY ROBERTSON
C:
Q: "Reel."
R: Reel.
%R: reel
B: James Kerr "Merry Melodies" v.2 p.15 #121
Z: 2016 John Chambers <jc:trillian.mit.edu>
M: C
L: 1/8
K: G
uc |\
d3g BGdB | Aaag fdef |\
gfgd BcdB | cAdc BGG ::\
c |\
BGDG EGDG |
ABcB cedc |\
[1 BGDG EGce | dBcA BGG :|\
[2 Bdgd ceag | fdef gGG |]
